assets/img/arr-page.svg

<svg width="278" height="200" viewBox="0 0 278 200" fill="none" xmlns="http://www.w3.org/2000/svg">
<path fill-rule="evenodd" clip-rule="evenodd" d="M228.55 161.624C222.876 161.109 217.235 160.28 211.653 159.141L202.995 157.198L198.651 156.271L194.311 155.211C188.531 153.724 182.749 152.093 177.031 150.026C171.206 147.992 165.51 145.608 159.973 142.886C159.269 142.548 158.565 142.216 157.86 141.843L155.784 140.729C154.389 139.971 153.033 139.274 151.629 138.459L146.735 135.6C144.948 134.505 142.996 133.344 141.147 132.264L137.101 129.856C135.781 129.083 134.487 128.31 133.22 127.538L129.448 125.284L123.903 121.882L122.066 120.72L118.345 118.353C115.872 116.706 113.301 115.052 110.672 113.182C105.384 109.505 100.169 105.74 95.0289 101.886C89.8698 98.0376 84.8182 94.0333 79.882 89.9249C72.2209 83.5365 64.7558 76.9302 57.6198 69.9954C51.2113 63.7597 45.1202 57.206 39.3693 50.359C33.656 43.563 28.3291 36.4514 23.4136 29.0579C22.7898 28.1504 22.166 27.243 21.6106 26.3204L19.8853 23.527C18.7055 21.6855 17.6452 19.8089 16.5559 17.9339L15.6562 16.3777C15.3636 15.8509 15.0938 15.3229 14.8126 14.7955C14.2503 13.7406 13.6881 12.6858 13.1086 11.6319C11.9665 9.51742 10.8759 7.40026 9.54582 5.33015C8.85105 4.1669 8.08928 2.70729 6.66546 1.93945C5.75857 1.42194 4.81985 0.962311 3.85493 0.563315C3.09605 0.274101 2.17052 -0.000680219 1.4918 0.25373C0.609641 0.587914 0.566924 1.65112 0.621188 2.47287C0.856545 4.51696 1.43594 6.50655 2.3344 8.35761L4.04018 12.3341L5.90002 16.2738L6.84486 18.2543L7.8691 20.2135C8.55956 21.5154 9.25637 22.8227 9.98222 24.14C10.7081 25.4573 11.5155 26.6839 12.3022 27.9519C12.6983 28.5829 13.0827 29.2145 13.49 29.8391L14.7406 31.7116L16.6153 34.4972C17.2406 35.4334 17.9053 36.3445 18.5479 37.2798L20.4973 40.0616C21.1505 40.9791 21.8427 41.8714 22.5125 42.7765L24.557 45.5014C25.2437 46.3998 25.9647 47.2907 26.6684 48.1825L28.7854 50.8517L33.1274 56.0692L35.353 58.6175L37.5836 61.154L39.8697 63.6415C46.9513 71.3056 54.2481 78.7855 61.9975 85.7634C71.9585 94.7448 82.4317 103.141 93.3645 110.911C95.8428 112.662 98.321 114.413 100.842 116.092C103.362 117.772 106.046 119.373 108.656 120.985C114.61 124.596 120.566 128.254 126.627 131.583C132.822 134.945 139.071 138.028 145.319 141.198C151.567 144.367 157.605 147.703 163.904 150.512C165.477 151.199 167.049 151.852 168.619 152.47C170.205 153.039 171.802 153.585 173.393 154.125C174.983 154.665 176.581 155.112 178.169 155.606L180.559 156.318L182.946 156.978C184.554 157.413 186.165 157.906 187.772 158.307L192.598 159.521C195.813 160.247 199.018 161.009 202.225 161.58C208.49 162.78 214.812 163.662 221.166 164.222C227.311 164.85 233.486 165.131 239.662 165.065L244.011 164.966L245.22 164.949C245.52 164.934 246.08 165.066 246.31 164.939C246.45 164.862 246.498 164.577 246.492 164.226C246.475 163.877 246.34 163.544 246.11 163.282C245.879 163.019 245.567 162.843 245.223 162.781C239.734 162.45 234.141 162.123 228.55 161.624Z" fill="#F06400"/>
<path fill-rule="evenodd" clip-rule="evenodd" d="M277.227 169.149L276.776 168.792L275.574 167.851L273.276 166.016L272.158 165.14L271.083 164.314C269.654 163.235 268.131 162.115 267.12 161.406C265.994 160.605 264.874 159.793 263.792 158.938C261.695 157.176 259.694 155.304 257.797 153.328C255.847 151.411 253.579 149.828 251.521 148.061C249.462 146.294 247.342 144.432 245.229 142.622C243.117 140.812 241.009 139.099 238.801 137.438C236.645 135.725 234.401 134.127 232.077 132.65C231.482 132.306 230.945 131.959 230.39 131.584L229.924 131.286C229.811 131.211 229.668 131.005 229.512 131.013C229.326 131.087 229.16 131.204 229.028 131.355C228.633 131.728 228.459 132.279 228.67 132.458C232.464 135.663 236.448 138.644 239.878 142.289C240.751 143.218 241.602 144.172 242.524 145.035L245.318 147.657L250.891 152.932C252.76 154.714 254.613 156.517 256.449 158.34C257.374 159.266 258.275 160.188 259.206 161.126C260.137 162.063 261.374 163.458 262.607 164.668L265.231 167.213C265.273 167.254 265.313 167.298 265.348 167.345C265.348 167.345 265.347 167.345 265.307 167.347L265.077 167.359C265.014 167.356 264.953 167.339 264.896 167.311L264.45 167.496L263.559 167.876L261.782 168.644C259.414 169.672 257.059 170.734 254.704 171.802C251.054 173.463 247.468 175.252 243.896 177.081L234.255 182.074C231.04 183.752 227.832 185.445 224.63 187.153L219.85 189.708C218.088 190.642 216.239 191.453 214.64 192.764C214.342 192.946 214.09 193.194 213.906 193.49C213.721 193.786 213.608 194.121 213.576 194.469C213.52 195.1 213.506 195.735 213.536 196.368C213.546 196.961 213.687 197.544 213.948 198.077C214.078 198.326 214.267 198.54 214.498 198.7C214.729 198.859 214.996 198.96 215.276 198.994C216.151 199.082 217.034 198.931 217.83 198.555C219.995 197.71 222.179 196.91 224.284 195.913C225.331 195.415 226.344 194.849 227.365 194.294L236.587 189.328L241.16 186.899C244.689 185.015 248.316 183.361 251.899 181.63L267.387 174.187L269.695 173.11C271.344 172.338 272.818 171.506 274.249 170.757C275.069 170.33 275.88 169.917 276.682 169.518L277.283 169.221C277.381 169.216 277.28 169.152 277.243 169.114" fill="#F06400"/>
</svg>

<svg width="278" height="200" fill="none" xmlns="http://www.w3.org/2000/svg"><path fill-rule="evenodd" clip-rule="evenodd" d="M228.55 161.624a154.26 154.26 0 0 1-16.897-2.483l-8.658-1.943-4.344-.927-4.34-1.06c-5.78-1.487-11.562-3.118-17.28-5.185a152.966 152.966 0 0 1-17.058-7.14c-.704-.338-1.408-.67-2.113-1.043l-2.076-1.114c-1.395-.758-2.751-1.455-4.155-2.27l-4.894-2.859a316.123 316.123 0 0 0-5.588-3.336l-4.046-2.408a258.812 258.812 0 0 1-3.881-2.318l-3.772-2.254-5.545-3.402-1.837-1.162-3.721-2.367c-2.473-1.647-5.044-3.301-7.673-5.171a539.422 539.422 0 0 1-15.643-11.296 362.92 362.92 0 0 1-15.147-11.961c-7.661-6.388-15.126-12.995-22.262-19.93A266.98 266.98 0 0 1 39.37 50.36a237.066 237.066 0 0 1-15.956-21.301c-.624-.908-1.248-1.815-1.803-2.738l-1.726-2.793c-1.18-1.841-2.24-3.718-3.33-5.593l-.899-1.556c-.292-.527-.562-1.055-.843-1.582-.563-1.055-1.125-2.11-1.704-3.164C11.966 9.517 10.876 7.4 9.546 5.33c-.695-1.163-1.457-2.623-2.88-3.39A24.762 24.762 0 0 0 3.854.562C3.096.274 2.17 0 1.492.253.61.589.567 1.652.622 2.474a18.26 18.26 0 0 0 1.712 5.885l1.706 3.976 1.86 3.94.945 1.98 1.024 1.96a277.7 277.7 0 0 0 2.113 3.926c.726 1.317 1.534 2.544 2.32 3.812.396.63.78 1.262 1.188 1.887l1.25 1.873 1.875 2.785c.626.936 1.29 1.847 1.933 2.783l1.95 2.782c.652.917 1.345 1.81 2.014 2.715l2.045 2.724c.687.899 1.408 1.79 2.111 2.681l2.117 2.67 4.342 5.217 2.226 2.548 2.23 2.537 2.287 2.487c7.081 7.665 14.378 15.145 22.128 22.122a347.204 347.204 0 0 0 31.367 25.148c2.478 1.751 4.956 3.502 7.477 5.181 2.52 1.68 5.204 3.281 7.814 4.893 5.954 3.611 11.91 7.269 17.971 10.598 6.195 3.362 12.444 6.445 18.692 9.615 6.248 3.169 12.286 6.505 18.585 9.314a138.86 138.86 0 0 0 4.715 1.958c1.586.569 3.183 1.115 4.774 1.655 1.59.54 3.188.987 4.776 1.481l2.39.712 2.387.66c1.608.435 3.219.928 4.826 1.329l4.826 1.214c3.215.726 6.42 1.488 9.627 2.059a188.796 188.796 0 0 0 18.941 2.642c6.145.628 12.32.909 18.496.843l4.349-.099 1.209-.017c.3-.015.86.117 1.09-.01.14-.077.188-.362.182-.713a1.546 1.546 0 0 0-1.269-1.445c-5.489-.331-11.082-.658-16.673-1.157Z" fill="#F06400"/><path fill-rule="evenodd" clip-rule="evenodd" d="m277.227 169.149-.451-.357-1.202-.941-2.298-1.835-1.118-.876-1.075-.826a156.746 156.746 0 0 0-3.963-2.908 82.248 82.248 0 0 1-3.328-2.468 76.77 76.77 0 0 1-5.995-5.61c-1.95-1.917-4.218-3.5-6.276-5.267-2.059-1.767-4.179-3.629-6.292-5.439a129.005 129.005 0 0 0-6.428-5.184 78.457 78.457 0 0 0-6.724-4.788 27.91 27.91 0 0 1-1.687-1.066l-.466-.298c-.113-.075-.256-.281-.412-.273a1.262 1.262 0 0 0-.484.342c-.395.373-.569.924-.358 1.103 3.794 3.205 7.778 6.186 11.208 9.831.873.929 1.724 1.883 2.646 2.746l2.794 2.622 5.573 5.275a382.578 382.578 0 0 1 5.558 5.408c.925.926 1.826 1.848 2.757 2.786.931.937 2.168 2.332 3.401 3.542l2.624 2.545c.042.041.082.085.117.132l-.041.002-.23.012a.46.46 0 0 1-.181-.048l-.446.185-.891.38-1.777.768a478.746 478.746 0 0 0-7.078 3.158c-3.65 1.661-7.236 3.45-10.808 5.279l-9.641 4.993a1211.033 1211.033 0 0 0-9.625 5.079l-4.78 2.555c-1.762.934-3.611 1.745-5.21 3.056a2.234 2.234 0 0 0-1.064 1.705c-.056.631-.07 1.266-.04 1.899a4.04 4.04 0 0 0 .412 1.709 1.735 1.735 0 0 0 1.328.917 4.844 4.844 0 0 0 2.554-.439c2.165-.845 4.349-1.645 6.454-2.642 1.047-.498 2.06-1.064 3.081-1.619l9.222-4.966 4.573-2.429c3.529-1.884 7.156-3.538 10.739-5.269l15.488-7.443 2.308-1.077c1.649-.772 3.123-1.604 4.554-2.353.82-.427 1.631-.84 2.433-1.239l.601-.297c.098-.005-.003-.069-.04-.107" fill="#F06400"/></svg>
